X:1
T: The Royal Meeting
N:
C:1794
S:
A:
O:
R:
M:4/4
K:G
I:speed 200
%W: A1
% voice 1 (1 lines, 38 notes)
K:G
M:4/4
L:1/16
G4 |G4 B4 B4 d4 |g4 d4 d4 B4 |c4 A4 B4 G4 |A2 G2 F2 E2 D4 G4 |G4 B4 B4 d4 |g4 d4 d4 B4 |B2 d2 B2 G2 E2 A2 F2 D2 |G4 G4 G8 |
%W: A2
% voice 1 (1 lines, 38 notes)
G4 B4 B4 d4 |g4 d4 d4 B4 |c4 A4 B4 G4 |A2 G2 F2 E2 D4 G4 |G4 B4 B4 d4 |g4 d4 d4 B4 |B2 d2 B2 G2 E2 A2 F2 D2 |G4 G4 G6 d2 |
%W: B1
% voice 1 (1 lines, 48 notes)
d4 g4 e4 g4 |d2 g2 d2 g2 e4 c4 |d2 g2 d2 g2 e2 g2 e2 g2 |a2 g2 f2 e2 d4 d4 |d4 g4 e4 g4 |d2 g2 d2 g2 e4 c4 |d2 g2 d2 g2 e2 g2 e2 g2 |c'2 b2 a2 g2 d'4 d4 |
%W: B2
% voice 1 (1 lines, 31 notes)
G4 B4 B4 d4 |g4 d4 d4 B4 |c4 A4 B4 G4 |A2 G2 F2 E2 D4 G4 |G4 B4 B4 d4 |g4 d4 d4 B4 |e4 z4 F4 z4 |G12 ||

